app/img/footer/phone.svg

<svg width="15" height="15" viewBox="0 0 15 15" fill="none" xmlns="http://www.w3.org/2000/svg">
<path d="M14.0597 14.627C6.06188 14.6379 -0.00842871 8.69811 8.78502e-06 1.03135C8.78502e-06 0.530021 0.420009 0.12207 0.937508 0.12207H3.41251C3.87657 0.12207 4.27126 0.452058 4.33969 0.896271C4.50292 1.96153 4.82337 2.99862 5.29126 3.97585L5.38782 4.17711C5.45268 4.31254 5.46664 4.46561 5.42727 4.60993C5.38791 4.75424 5.2977 4.88075 5.17219 4.96763C4.40532 5.49706 4.11282 6.56226 4.71001 7.39267C5.45907 8.43521 6.40313 9.34902 7.48125 10.0734C8.34094 10.6499 9.4425 10.3671 9.98907 9.62643C10.0788 9.5047 10.2097 9.41714 10.3592 9.3789C10.5087 9.34066 10.6672 9.35414 10.8075 9.41701L11.0147 9.50948C12.0253 9.96276 13.0978 10.2728 14.1994 10.4305C14.6588 10.4967 15 10.8784 15 11.328V13.7204C15 13.8396 14.9757 13.9575 14.9285 14.0676C14.8814 14.1776 14.8122 14.2776 14.7251 14.3618C14.6379 14.446 14.5345 14.5128 14.4206 14.5583C14.3068 14.6038 14.1848 14.6271 14.0616 14.627H14.0597Z" fill="white"/>
</svg>

<svg width="15" height="15" fill="none" xmlns="http://www.w3.org/2000/svg"><path d="M14.06 14.627C6.062 14.637-.008 8.698 0 1.031 0 .53.42.122.938.122h2.475a.93.93 0 01.927.774c.163 1.066.483 2.103.951 3.08l.097.201a.622.622 0 01.04.433.641.641 0 01-.256.358c-.767.53-1.06 1.594-.462 2.425a10.918 10.918 0 002.771 2.68c.86.577 1.962.294 2.508-.447a.664.664 0 01.37-.247.684.684 0 01.448.038l.208.092c1.01.454 2.083.764 3.184.921.46.067.801.448.801.898v2.392a.88.88 0 01-.275.642.94.94 0 01-.663.265h-.002z" fill="#fff"/></svg>
